X: 27476
T: Molly On The Shore
R: reel
M: 4/4
K: Adorian
|. A.A.AB e2 dB|e2 dB GABG|.A.A.AB edef|(3gfe dB BAAG|
. A.A.AB e2 dB|e2 dB GABG|.A.A.AB edef|(3gfe dB BA A2||
eaag a2e>f|gedB GABG|eaag a2 ef|(3gfe dB BAAG|
eaag a2e>f|gedB GABG|.A.A.AB edef|gedB A3G||

